src/Icon/svgs/leaf.svg

<svg width="24" height="24" viewBox="0 0 24 24" fill="none" xmlns="http://www.w3.org/2000/svg">
<path d="M7.22004 20.9849C7.20238 20.9833 7.1848 20.9816 7.1673 20.9797C6.38591 21.5341 5.57136 22.0232 4.72371 22.4471C4.47672 22.5706 4.17639 22.4704 4.0529 22.2235C3.9294 21.9765 4.02951 21.6761 4.2765 21.5526C4.85518 21.2633 5.41788 20.9416 5.96462 20.5874C5.21012 20.1205 4.72195 19.258 4.50011 17.9999C4.15281 16.0303 4.48614 14.3636 5.5001 12.9999C7.15279 13.697 8.15278 15.0303 8.50008 16.9999C8.59577 17.5426 8.63979 18.0369 8.63214 18.483C9.36001 17.7947 10.0531 17.0351 10.7114 16.2041C9.79178 15.9727 9.0731 15.3393 8.55542 14.304C7.88876 12.9707 7.88876 10.9707 8.55542 8.30402C10.5554 9.10342 11.8887 10.4225 12.5554 12.2613C12.6478 12.5162 12.721 12.7616 12.775 12.9976C13.1587 12.213 13.452 11.4301 13.6552 10.6486C12.2185 9.91134 11.5001 8.69511 11.5001 6.99996C11.5001 4.99997 12.5 2.99999 14.5 1C16.5 2.99999 17.5 4.99997 17.5 6.99996C17.5 8.96412 16.5355 10.2853 14.6065 10.9635C14.4346 11.6102 14.2065 12.2561 13.9223 12.9011C14.1014 12.7845 14.2889 12.6772 14.4848 12.5792C15.8181 11.9126 17.8181 11.9126 20.4848 12.5792C19.75 15.3949 18.4166 17.0616 16.4848 17.5792C14.6989 18.0577 13.1881 17.6079 11.9525 16.2297C11.9351 16.2531 11.9176 16.2765 11.9001 16.2999C11.3215 17.0714 10.715 17.7887 10.0808 18.4519C10.186 18.4463 10.2936 18.4435 10.4038 18.4435C12.1722 18.4435 13.7231 18.8242 15.0564 19.5855C14.1482 21.5661 12.694 22.5564 10.6941 22.5564C8.90817 22.5564 7.75017 22.0326 7.22004 20.9849Z" fill="#D7CAA4"/>
</svg>

<svg xmlns="http://www.w3.org/2000/svg" width="24" height="24" fill="none"  xmlns:v="https://vecta.io/nano"><path d="M7.22 20.985l-.053-.005c-.781.554-1.596 1.043-2.444 1.467a.5.5 0 1 1-.447-.894 17.44 17.44 0 0 0 1.688-.965C5.21 20.121 4.722 19.258 4.5 18c-.347-1.97-.014-3.636 1-5 1.653.697 2.653 2.03 3 4 .096.543.14 1.037.132 1.483a21.52 21.52 0 0 0 2.079-2.279c-.92-.231-1.638-.865-2.156-1.9-.667-1.333-.667-3.333 0-6 2 .799 3.333 2.118 4 3.957a6.27 6.27 0 0 1 .22.736c.384-.785.677-1.568.88-2.349C12.219 9.911 11.5 8.695 11.5 7c0-2 1-4 3-6 2 2 3 4 3 6 0 1.964-.965 3.285-2.893 3.964a13.24 13.24 0 0 1-.684 1.938 5.72 5.72 0 0 1 .563-.322c1.333-.667 3.333-.667 6 0-.735 2.816-2.068 4.482-4 5-1.786.479-3.297.029-4.532-1.349l-.052.07a23.57 23.57 0 0 1-1.819 2.152l.323-.008c1.768 0 3.319.381 4.653 1.142-.908 1.981-2.362 2.971-4.362 2.971-1.786 0-2.944-.524-3.474-1.572z" fill="#d7caa4"/></svg>
